X:1
T:nocturne 27:2
C:Chopin
%%score ( 1 2 3 )
L:1/8
Q:1/4=40
M:6/8
K:D
V:1 treble-8 nm="Classical Guitar" snm="Guit."
V:2 treble-8 
V:3 treble-8 
V:1
"^Free tempo. Low e string tuned to d." z6 | f3 ed>F | A3- Adf | b3- b/a/^e/f/c/d/ | !3!^A6 | %5
 B3 z/ c'/b/f/a/g/ | f2 e !turn!efg | !4!g' z (5:4:5e'/4d'/4_b/4g/4e/4{/e} c/d/^d/e/f/g/ | %8
"^CIV............................................" ^g2- g/4a/4b/4a/4 f3 | %9
 [df][eg]>[Bd] [ce][df][^Ac] | %10
 [ce][Bd]/ z/4 [db]/4(3[db]/[ca]/[Bg]/ [Bf](3^A/B/^B/(3[cf]/[df]/[ef]/ | %11
 [df][eg]>[Bd] [df]/[ce]/(3[ce]/[Bd]/[ce]/[df]/>[^Ac]/ | %12
 [ce][Bd]/ z/ [DB-] [^DB]/[A=c]/D/4A/4^A/4B/4[=Af]/B/4A/4 | %13
 [BB][A=c][EG] (3[GB]/[FA]/[GB]/(3[FA]/[EG]/[FA]/[GB]/>[^df]/ | %14
 !4!!1![fa][eg]/ z/4 [ge']/4(3[ge']/[fd']/[e=c']/ (3!1!!4![^db]/b/!2![^Bb]/(3!2![cb]/!2![=db]/!1![^db]/(3!1![eb]/!2![^eb]/!2![fb]/ | %15
 (5:4:5!4!b/=c'/!1!!4![Gb]/!1!!4![Fa]/[Gb]/[Ac']/>g/ [Gb]/>[Fa]/(3[Ba]/[Eg]3/4[Fa-]/4(3a/b3/4[^df-]/4 | %16
 [fa] z [Eg-] [Eg]g[dg] | [cg]>_ba- a[Gg][Dd] | %18
 c2 A (3_B/=c/B/A/"^CIII..................."B/=f/>e/ | e>[_B_b][Aa-] aa/4g/4a/4g/4=f/4e/4f/4e/4 | %20
 c2 z/ A/ (3_B/=c/B/A/B/=f/>e/ | e2 z e3- | e3 ^d3 | d3 d3 | dcB B/A/B/c/d/e/ | f3 ed>F | A3- Adf | %27
 b3- b/a/^e/f/c/d/ | ^A6 | B3 z/ c'/b/f/a/g/ | f2 e- e/^d/e/^e/f/>g/ | %31
 !4!g'-(3g'/e'/d'/(3_b/g/!0!e/ c/>A,/(3!3!E/4!4!c/4!2!^A,/4(3^E/4d/4B,/4(3F/4^d/4=C/4(3G/4e/4^C/4 | %32
[K:D] !3!!4![^G^e]>[Af](3[Af]/g/[Af]/ d3 || %33
[K:Bb]"^CXIII................................" !3!!4![Fd]!1!!4![Ge]>!4!B d/Pc/[DB]/c/[Fd]/>[CA]/ | %34
 !3!!4![Ec]>[DB](3[DB]/[DA]/[DG]/ F>[=Bf][cf]/[^cf]/ | %35
 [df]2 [_eg]/[Bd]/ [df]/[=ce]/(3[ce]/[=Bd]/[ce]/[df]/>[Ac]/ | !4!edb- bbb | %37
 [da]b>[d-a] (3[dg]/=e/d/(3[^cg]/f/g/[ca]/>[ce]/ | %38
 [=eg]>[df]{/d}(3[Fd]/c/B/ (3A/[A,A]/[B,A]/(3[=B,A]/[CA]/[^CA]/(5:4:5[DA]/4[^DA]/4[=EA]/4[FA]/4[^FA]/4 | %39
"^1/2CV..........................." [Ga][G^cb][ca] [G=e][^CA][=EA] | %40
"^1/2CX................................................" [ga]{/c'}[gb][ga] [g=e'][^ca][=ea] || %41
 a2 g z [^cg][=cg] | [=Bg] [^cg-]2 g/_e/(3=e/_B/=c/(3^F/G/_E/ | %43
"^If too difficult here, ad lib around an A7dim9 chord or skip to bar 46." [^cg] [cg-]2 g/_e/(3=e/_B/=c/(3^F/G/_E/ | %44
 [Bg] [^cg]2 [Bg]g[Bg] | g-(3g/^f/=f/(3G/=e/_e/ (3d/=E/^c/(3=B/_B/^C/(3[Aa]/[^G^g]/[=G=g]/ || %46
[K:D] f3 ed>F | A3- Adf | b3- b/a/^e/f/c/d/ | =c6 | =c'3- (9:6:9c'/^g/a/g/=g/^g/b/a/f/ | %51
 e3 T[=CFd]e/4d/4c/4d/4e/4f/4g/4a/4 | %52
"^ad lib......................................................................................................................................................................................................." b/4=c'/4d'/4e'/4b/4a/4c'/4^g/4a/4g/4c'/4=g/4 ^g/4=g/4c'/4f/4g/4f/4c'/4=f/4a/4^f/4d/4=c/4 | %53
 B3/2^A/4B/4(5:4:5=c/4!0!B/4d/4c/4B/4 B2 b- | %54
 [gb][a=c'][eg] [gb]/[fa]/(3[fa]/[eg]/[fa]/[Gb]/>[^df]/ | %55
 [fa][eg]/ z/4 [ge']/4(3[ge']/[fd']/[e=c']/ (3!4![fb]/!1![Bb]/[=cb]/(3[^cb]/[db]/!1!!4![^db]/(3!1!!4![eb]/!2![^eb]/!2![fb]/ | %56
 [gb][a=c'][eg] [gb]/[fa]/(3[fa]/[eg]/[fa]/[Gb]/>[^df]/ | %57
 [fa][eg]!0![eg'-] (3:2:2g'[af']/(3[ge']/[fd']/[ec']/(3[db]/[ca]/[Bg]/ | [Af][Bg][Af] [Ge][Fd]F | %59
"^Ad lib with runs, harmonics etc........................................................" A3 !0!B3 | %60
 (9:6:9E/A/d/e/a/d/e/a/d'/ (9:6:9e'/d'/a/e/d'/a/e/d/A/ |{/aed} e3 a>e(3f/e/d/ | d3 !4!d' ^g2 | %63
 c' g2 =c' f2 | b =f2 _b e2 | a2 A/B/ c/d/^d/e/f/g/ | [fa] z2 z d{/B}^G | z c{/_B}G z =c{/A}F | %68
 z B{/^G}=F z _B{/=G}E | a3- a/^g/=g/f/e/f/ | a3 f/g/^g/a/c'/b/ | a3 [ea]/^g/=g/f/e/f/ | %72
 d3 f/g/^g/a/c'/b/ | a3 [ea]/^g/=g/f/e/f/ | [Ad]6 | %75
"^Rit." [A,A]/G/A/B/[Q:1/4=30](3[Ec]/[Fd]/[Ge]/ (7:6:7[Af]/[Bg]/[ca]/[db]/[ec']/[fd']/[ge']/ | %76
 [af']3 [Ad]3 | [Fd]6!fine! |] %78
V:2
 D,/"^Chopin Nocturne 27:2 arr. Dempsey (simpler version)"F/A,/F/D/F,/ D/F/A,/F/D/F,/ | %1
 D,/A/A,/F/D/F,/ D/F/A,/F/D/F,/ | D,/D/A,/F/D/F,/ D/F/A,/F/D/F/ | D,/D/A/A,/F/A,/ D/F/A,/D/A,/F/ | %4
 D,/!2!E/!0!G/E/G/E/ D,/E/G/E/G/E/ | D/G/B,/G/E/G/ D/G/B/G/E/G/ | C/G/^A,/E/G/E/ B,/G/B/G/E/G/ | %7
 !1!_B/!0!G/B/G/D A,/G/A/G/c/E/ | D/^e/^G/e/B/D/ D,/F/A,/F/D/F/ | B,/F/B/F/D/F/ B,/F/^A/F/E/F,/ | %10
 B,/F/B, z F,/C/FE | B,/F/B/F/D/B/ B,^AE/F/ | B,/F/B/F/D/B,/ B,/A/B,/^A/^D/B,/ | %13
 !2!E,/G/E,/G/E/G,/ E,B,F | !3!E/!0!G/B z !1!B z2 | !0![EGB]2 E EF[F^d]/F/ | %16
 E/!0!G/B/G/E/G/ _B,/=d/{/^D}E/d/G/E/ | A,/c/E/c/G/E/ _B,/_B/E/B/G/E/ | %18
 A,/A/E/A,/G/A,/ [D=F]G/F/_B/D/ | C/E/G/e/A/G/ _B,/d/E/d/G/E/ | A,/A/E/A,/E/A,/ [D=F]G/F/_B/D/ | %21
 C/E/G/E/_B/E/ =C/E/G/E/B/G/ | =C/E/F/E/A/F/ C/^D/=F/D/A/F/ | _B,/D/=F/D/_B/F/ B,/D/E/D/G/E/ | %24
 A,/E/C/E/G/D/ A,/A/C/A/G/A,/ | D,/F/A,/F/D/F,/ D/F/A,/F/D/F,/ | D,/F/A,/F/D/F,/ D/F/A,/F/D/F,/ | %27
 D,/D/A/A,/F/A,/ D/F/A,/D/A,/F/ | D,/E/!0!G/E/G/E/ D,/E/G/E/G/E/ | D/G/B,/G/E/G/ D/G/B/G/E/G/ | %30
 C/G/^A/G/E/G/ B,/G/B,/G/E/G/ | !1!_B<!0!G!0!D A,/!0!G/ A,2 | %32
[K:D] D,/!1!A,/!1!D/A,/!0!D D/A/F/A/D/A,/ ||[K:Bb] !0!D,/F/!1!F,/F/!1!B,/!1!F,/ !1!EF,/EF,/ | %34
 !0!D,DB,/F,/ F,/A,/A,E/F/ | _B,/F/B,/F/D F,A,F | !1!B,/F/B,/F/D/F/ =E/G/D/G/D/=e/ | %37
 A,/G/A,/G/D/=E/ A,A,A,/D/ | A,/D,/A,D, F,=B,D | A,/!0!=e/G/e/G A,/=E/^C/E/C | %40
 A,/!0!=e/g/e/^c/e/ A,/e/c/e/c || B,/=E/G/E/^c/E/ B,/E/G/E/=c/E/ | =B,/=E/G/E/=B/=e/ [=B,=EG]2 z | %43
 B,/=E/G/E/=B/=e/ [C=EG]2 z | ^C/=e/G/e/B/e/ D/d/G/B/E/^c/ | [B,E^c]3 [A,G]3 || %46
[K:D] D,/A/A,/F/D/F,/ D/F/A,/F/D/F,/ | D,/D/A,/F/D/F,/ D/F/A,/F/D/F,/ | %48
 D,/D/A/A,/F/A,/ D/F/A,/D/A,/F/ | D,/F/A,/F/D/F/ D/F/A/F/D/A,/ | D,/F/A,/F/D/F/ DDD | %51
 D,/F/A/F/=C/F/ D,3 | D,6 | !1!^D,/F/A,/F/[B,F] D,/F/A,/F/B/F/ | E/e/B/!0!G/E/G/ EA,^D | %55
 E/A/ B2 !1!Bc!2!^D | E/e/B/G/E/G/ EA,^D | E/A/B/G/B G2 [EB] | A,/DD/A/A,/ B,/DD,/B,/D/ | %59
 [F,D]/A,/D/A,/D/F,/ !0![G,DE]/D/E/G,/E/B,/ | [A,D]3 [A,D]3 | A,/D/E/d/G/E/ [A,F]/c/E/c/G/A,/ | %62
 D,/A/A,/A/D/F,/ !0!D/=f/B/f/B/f/ | !0!D/e/^A/e/A/e/ D/^d/=A/d/A/d/ | D/d/^G/d/G/d/ D/c/=G/c/G/c/ | %65
 D/c/G/c/A/E/ DG/c/A/E/ | D,/A/d/A/d/F/ D,/=F/B,/F/D/B,/ | D,/E/^A,/E/C/E/ D,/^D/=A,/D/A,/F,/ | %68
 D,/D/^G/D/=F/B,/ D,/D/_B/D/E/_B,/ | D/c/G/c/A/E/ D/c/G/c/A/E/ | [D,D]/d/D/d/F/A,/ D,/d/D/d/F/A,/ | %71
 DG/c/A/E/ D/c/G/c/A/E/ | D,DF/A,/ D,/d/D/d/F/A,/ | DG/c/A/E/ D/c/G/c/A/E/ | %74
 D,/D/A,/D/F/A,/ D,/D/A,/D/F/A,/ | D,/D/A,/D/A, D,3 | D,3 A,3 | [D,A,]6 |] %78
V:3
 x6 | x6 | x6 | x6 | x6 | x6 | x6 | x6 | x6 | x6 | x6 | x6 | x6 | x6 | x6 | x6 | x6 | x6 | x6 | %19
 x6 | x6 | x6 | x6 | x6 | x6 | x6 | x6 | x6 | x6 | x6 | x6 | x6 |[K:D] x6 ||[K:Bb] x6 | x6 | x6 | %36
 x6 | x6 | x6 | x6 | x6 || x6 | x6 | x6 | x6 | x6 ||[K:D] x6 | x6 | x6 | x6 | x6 | x6 | x6 | x6 | %54
 x6 | x6 | x6 | x6 | x6 | x6 | x6 | x6 | x6 | x6 | x6 | x6 | x6 | x6 | x6 | x6 | x6 | %71
 c/d/^d/e/g/f/ x3 | _B/A/^G/A/{/c}=B/A/ A3 | c/d/^d/e/g/f/ x3 | x6 | x6 | x6 | x6 |] %78

